X:947
T:Reel 947
M:4/4
K:Dmaj
L:1/8
A>D (3DDD A,>D (3DDD |Adc (3ccd A2F2|B>c (3dcd B>F (3FEF |GEFD A,2F2:||2 (3Bcd A>F  (3EFE  (3cdc |B>E (3EDE FDD2|d2c2 d2cA|BABc d2AF|D2dc d2cA| (3Bcd AF E2 (3EFG |AdcB cedc|B>c (3Bcd  (3cdc B2|A>d (3dcd c2ed| (3Bcd cA BGFD|
